X:574
T: Ennek a kislánynak nincs babája
M:4/4
L:1/4
K:C
C/C/C/C/ C G, | A,/B,/ C G, z |
E/E/E/E/ E C |D/E/ F D z |
G/G/A/A/ G/E/ C | C/C/D/C/ B,/A,/ G, |
F/E/ D G>E | F/E/ D C z |

